icon-themes/breeze_svg/cmd/sc_starshapes.star12.svg

<svg viewBox="0 0 16 16" xmlns="http://www.w3.org/2000/svg">/&gt;<path d="m8 2-.78125 3.09375-2.21875-2.3125.875 3.09375-3.0625-.875 2.28125 2.21875-3.09375.78125 3.09375.78125-2.28125 2.21875 3.0625-.875-.875 3.0625 2-2.1875c.5712145-.740595 1.3210215-1.4503986 3-2l.90625-.21875 3.09375-.78125-3.09375-.78125 2.3125-2.21875-3.09375.875.875-3.09375-2.21875 2.3125zm.96875 8-.96875.25v.5l1-.1875v3h-.90625v.4375h2.34375v-.4375h-.90625v-3.5625zm3.59375 0c-.16169 0-.33649.0185-.53125.0625-.19476.0438-.40084.1015-.625.1875v.5625c.22049-.1175.43207-.22325.625-.28125.19476-.0579.38795-.09375.5625-.09375.24621 0 .44124.08725.59375.21875.15435.1316.21875.2912.21875.5 0 .1281-.02205.27285-.09375.40625-.06982.1315-.19678.27755-.375.46875-.09371.1017-.32186.3348-.6875.6875-.3638.3508-.6637.63505-.875.84375v.4375h2.625v-.4375h-1.9375c.44832-.4368.78504-.78905 1.03125-1.03125.24621-.2439.3916-.3865.4375-.4375.1672-.1964.28125-.3562.34375-.5.0643-.1456.09375-.30735.09375-.46875 0-.3404-.12144-.6089-.375-.8125-.25356-.2034-.60498-.3125-1.03125-.3125z" fill="#4d4d4d"/></svg>

<svg xmlns="http://www.w3.org/2000/svg" viewBox="0 0 16 16">
     />
 <path 
     style="fill:#4d4d4d" 
     d="M 8 2 L 7.21875 5.09375 L 5 2.78125 L 5.875 5.875 L 2.8125 5 L 5.09375 7.21875 L 2 8 L 5.09375 8.78125 L 2.8125 11 L 5.875 10.125 L 5 13.1875 L 7 11 C 7.5712145 10.259405 8.3210215 9.5496014 10 9 L 10.90625 8.78125 L 14 8 L 10.90625 7.21875 L 13.21875 5 L 10.125 5.875 L 11 2.78125 L 8.78125 5.09375 L 8 2 z M 8.96875 10 L 8 10.25 L 8 10.75 L 9 10.5625 L 9 13.5625 L 8.09375 13.5625 L 8.09375 14 L 10.4375 14 L 10.4375 13.5625 L 9.53125 13.5625 L 9.53125 10 L 8.96875 10 z M 12.5625 10 C 12.40081 10 12.22601 10.0185 12.03125 10.0625 C 11.83649 10.1063 11.63041 10.164 11.40625 10.25 L 11.40625 10.8125 C 11.62674 10.695 11.83832 10.58925 12.03125 10.53125 C 12.22601 10.47335 12.4192 10.4375 12.59375 10.4375 C 12.83996 10.4375 13.03499 10.52475 13.1875 10.65625 C 13.34185 10.78785 13.40625 10.94745 13.40625 11.15625 C 13.40625 11.28435 13.3842 11.4291 13.3125 11.5625 C 13.24268 11.694 13.11572 11.84005 12.9375 12.03125 C 12.84379 12.13295 12.61564 12.36605 12.25 12.71875 C 11.8862 13.06955 11.5863 13.3538 11.375 13.5625 L 11.375 14 L 14 14 L 14 13.5625 L 12.0625 13.5625 C 12.51082 13.1257 12.84754 12.77345 13.09375 12.53125 C 13.33996 12.28735 13.48535 12.14475 13.53125 12.09375 C 13.69845 11.89735 13.8125 11.73755 13.875 11.59375 C 13.9393 11.44815 13.96875 11.2864 13.96875 11.125 C 13.96875 10.7846 13.84731 10.5161 13.59375 10.3125 C 13.34019 10.1091 12.98877 10 12.5625 10 z "
     />
 </svg>
